!!!COM: Beethoven
!!!OTL: Acht Variationen uber "Une fievre brulante" aus "Richard Coeur de Lion" von A.E.M. Gretry
!!!Variation: Variation 8 b2
**function	**harm	**kern	**kern
*M2/4	*M2/4	*staff2	*staff1
*C:	*C:	*clefF4	*clefG2
*tb16	*	*k[]	*k[]
*	*	*M2/4	*M2/4
*	*	*C:	*C:
=-	=-	=-	=-
8D	8V6	8r	8dd
=	=	=290	=290
2D	2V6	8BBL	16cc#LL
.	.	.	16dd
.	.	8DJ	16ee
.	.	.	16ddJJ
.	.	8GL	16dddLL
.	.	.	16dd
.	.	8BJ	16ddd
.	.	.	16ddJJ
=	=	=291	=291
2 D	2vi7 ii7/V	8AAL	16bLL
.	.	.	16cc
.	.	8EJ	16dd
.	.	.	16ccJJ
.	.	8GL	16cccLL
.	.	.	16cc
.	.	8AJ	16ccc
.	.	.	16ccJJ
=	=	=292	=292
2D	2V7/V	8DL	16bLL
.	.	.	16cc
.	.	8F#J	16dd
.	.	.	16ccJJ
.	.	8AL	16cccLL
.	.	.	16cc
.	.	8dJ	16ccc
.	.	.	16ccJJ
=	=	=293	=293
2D	2V7/V	8f#L	16cccLL
.	.	.	16bb
.	.	8aJ	16aa
.	.	.	16ggJJ
.	.	8dL	16ff#LL
.	.	.	16ee
.	.	8f#J	16dd
.	.	.	16ccJJ
=	=	=294	=294
4D	4I/V	8GL	16bLL
.	.	.	16cc
.	.	8gJ	16b
.	.	.	16aJJ
4D	4V2/IV/V	8FL	16bLL
.	.	.	16g
.	.	8fJ	16a
.	.	.	16bJJ
=	=	=295	=295
4P	4IV6/V	8EL	16ccLL
.	.	.	16dd
.	.	8eJ	16ee
.	.	.	16ff#JJ
4P	4IV/V	8CL	16ggLL
.	.	.	16ee
.	.	8cJ	16dd
.	.	.	16ccJJ
=	=	=296	=296
4D	4I64/V	8DL	16bLL
.	.	.	16dd
.	.	8dJ	16g
.	.	.	16bJJ
4D	4V7/V	8DDL	16aLL
.	.	.	16cc
.	.	8DJ	16f#
.	.	.	16aJJ
=	=	=297	=297
4.T	4.I/V	8r	4g
.	.	8GGL	.
.	.	8GJ	8r
=	=	=	=
*-	*-	*-	*-
